X: 27927
T: Mountain Stream, The
R: barndance
M: 4/4
K: Gmajor
d2 d>e d>B G2|A2 A>B A>G E2|D2 D>G E2 E>G|D2 D>G E>F (3GAB|
d2 ^c>e d>B G2|A2 A>B A>GE>G|D2 D>E G2 B>c|d>BA>B G2:|
d2 (3Bcd g>*fg>e|d2 B>G (3ABA (3GFE|D2 D>G E>^DE>G|D2 (3BAG A>GB>c|
[1 d2 (3Bcd g2 (3gfe|d>BG>B A>BG>E|D2 D>E G2 (3ABc|d2 (3cBA G2:|
[2 d2 ^c>e d>BG>D|A>^GA>B A>G (3EFG|D2 D>E G>FG>B|d>B (3ABA G2||
B2 B>A G2 G>E|D>GB>G A2 G>E|D2 D>G E2 E>G|D3 G E>F (3FGA|
[1 B2 (3cBA G2 (3GFE|D2 B2 A2 (3Bcd|(3efg e>g e>dB>c|d<gB>A G2:|
[2 (3ded ^c>e d>gB>G|(3AAA B>G A>GE>G|D>CD>E G>DB>c|(3dcB A>B G2||
(3BcB (3cBA G2 G>E|D2 B>G A2 B>d|(3efg e>g e>dB>c|(3dcB A>B G2:|
B2 B>A G2 G>E|D>GB>G A2 G>E|D2 D>G E2 E>G|D>GB>G A>GE>G|
[1 d2 ^c>e d>B G2|A2 A>B A>GE>G|D3 E G3 B|d>BA>B G2:|
[2 B2 (3cBA G2 (3GFE|D2 B2 A2 (3Bcd|(3efg e>g e>dB>c|d<BA>B G2||

